X: 548
T: Derdimi Arzetmeye...
C: Ali Bey (Enderûnî)
O: Turkey
F: http://compmusic.upf.edu/node/140
N: hicaz--sarki--senginsemai--derdimi_arz--enderuni_ali_bey
N: makam= hicaz
N: form= sarki
N: usul= senginsemai = 6/4
M: 6/4
L: 1/16
K: C _7/8B ^f ^c 
Q: 1/4=66
%%MIDI tuningsystem comma53
e3c A4 =f3e dcde f8  | {zz}e3=b a2^g2 =f3e fefg a4 z4  | 
w:  ARANAĞME  |   | 
{z}a3^g =f3e d2e2 fgfe e2A2 B2A2  | \
w:   | 
{zzz}A2c2 e2c2 B3A ^GABG A8  | 
w:   | 
{zz}e3c A4 =f3e dcde f8  | {zz}e3=b a2^g2 =f3e fefg a4 z4  | 
w:  ARANAĞME  |   | 
{z}a3^g =f3e d2e2 fgfe e2A2 B2A2  | \
w:   | 
{zzz}A2c2 e2c2 B3A ^GABG A8  | 
w:   | 
{zz}d6e2 e4 e4 {z}e2=f2 e2d2  | e2=f4fe e3d d2{e}dc c6z2  | \
w:  Der *  di mi  arz_  |  et *  *  *  me *  ye  *  *  *  ol   | 
{z}d3e =f2{g}fe e2{f}ed d4 {z}dcdf edcB  | 
w:  şû *  *  *  *  *  ha  *  *  *  bir  dem   | 
A6{zc}BA G4 {z}e2^3/4fe e2^f2 g2a2  | \
w:  bul *  *  *  *  ma *  *  dım    | 
g2=f2 e2d2 c3B cB{c}BA A8  | 
w:  Ha *  *  *  *  *  li *  *  me  *  hiç   | 
{z}A3c B4 A4 A2B2 {z}A^G=F2 G2A2  | \
w:  rahm_ *  *  e der  *  â  | 
^G4 A3B c2{d}cB A4 {z}d3=f e2d2  | 
w:  *  lem *  de  *  *  *  hem dem   | 
c3B B3A ^G2A2 BcBA {z}A3d cde2  | \
w:  bul *  *  *  *  *  ma *  *  *  dım   SAZ  | 
d6e2 e4 e4 {z}e2=f2 e2d2  | 
w:  Der *  di mi  arz_  | 
e2=f4fe e3d d2{e}dc c6z2  | {z}d3e =f2{g}fe e2{f}ed d4 {z}dcdf edcB  | 
w:  et *  *  *  me *  ye  *  *  *  ol   |  şû *  *  *  *  *  ha  *  *  *  bir  dem   | 
A6{zc}BA G4 {z}e2^3/4fe e2^f2 g2a2  | \
w:  bul *  *  *  *  ma *  *  dım    | 
g2=f2 e2d2 c3B cB{c}BA A8  | 
w:  Ha *  *  *  *  *  li *  *  me  *  hiç   | 
{z}A3c B4 A4 A2B2 {z}A^G=F2 G2A2  | \
w:  rahm_ *  *  e der  *  â  | 
^G4 A3B c2{d}cB A4 {z}d3=f e2d2  | 
w:  *  lem *  de  *  *  *  hem dem   | 
c3B B3A ^G2A2 BcBA {z}A3g fga2  | \
w:  bul *  *  *  *  *  ma *  *  *  dım   SAZ  | 
g6a2 a4 a4 {z}a6g2  | 
w:  Ketm_ *  e der  râz_  | 
a2=b4ba a3g agf^e f8  | {z}e3f g3f f3e e2{f}ed d8  | 
w:  ı  *  *  *  de *  rû *  *  *  num   |  yar_ *  *  *  i  *  mah *  *  *  rem   | 
{z}d3e f2g2 a2g2 a2=ba a6ag  | {z}g6f2 g2f2 =b2ag g2a2 g2f2  | 
w:  bul *  *  *  *  *  ma *  *  dım    |  Yâ *  re  *  aç *  *  tın   | 
z2=b2 a2^g2 g3=f f3e agfe dcd2  | \
w:  sî *  *  ne *  me  *  am  | 
{z}d3e =f3e e3d fedc {z}d2e2 f2^g2  | 
w:  ma  *  *  *  ki  *  mer *  *  *  hem   | 
a3^g =f3e d2e2 f2{g}fe e2^f2 =g2a2  | \
w:  bul *  *  *  *  *  ma *  *  *  dım   SAZ  | 
{zz}g2=f2 e2d2 c3B cB{c}BA A8  | 
w:  Ha *  *  *  *  *  li *  *  me  *  hiç   | 
{z}A3c B4 A4 A2B2 {z}A^G=F2 G2A2  | \
w:  rahm_ *  *  e der  *  â  | 
^G4 A3B c2{d}cB A4 {z}d3=f e2d2  | 
w:  *  lem *  de  *  *  *  hem dem   | 
c3B B3A ^G2A2 BcBA A8  | |


